poi/svg/2411.svg

<?xml version="1.0" encoding="UTF-8" standalone="no"?>
<svg
   xmlns:dc="http://purl.org/dc/elements/1.1/"
   xmlns:cc="http://creativecommons.org/ns#"
   xmlns:rdf="http://www.w3.org/1999/02/22-rdf-syntax-ns#"
   xmlns:svg="http://www.w3.org/2000/svg"
   xmlns="http://www.w3.org/2000/svg"
   xmlns:sodipodi="http://sodipodi.sourceforge.net/DTD/sodipodi-0.dtd"
   xmlns:inkscape="http://www.inkscape.org/namespaces/inkscape"
   inkscape:version="1.0 (4035a4fb49, 2020-05-01)"
   sodipodi:docname="2411.svg"
   id="svg20"
   version="1.2"
   viewBox="0 0 42.519639 42.519639"
   height="14.999999mm"
   width="14.999999mm">
  <metadata
     id="metadata24">
    <rdf:RDF>
      <cc:Work
         rdf:about="">
        <dc:format>image/svg+xml</dc:format>
        <dc:type
           rdf:resource="http://purl.org/dc/dcmitype/StillImage" />
        <dc:title>Qt SVG Document</dc:title>
      </cc:Work>
    </rdf:RDF>
  </metadata>
  <sodipodi:namedview
     inkscape:current-layer="svg20"
     inkscape:window-maximized="0"
     inkscape:window-y="0"
     inkscape:window-x="0"
     inkscape:cy="28.346482"
     inkscape:cx="28.346482"
     inkscape:zoom="5.8410537"
     showgrid="false"
     id="namedview22"
     inkscape:window-height="480"
     inkscape:window-width="1034"
     inkscape:pageshadow="2"
     inkscape:pageopacity="0"
     guidetolerance="10"
     gridtolerance="10"
     objecttolerance="10"
     borderopacity="1"
     bordercolor="#666666"
     pagecolor="#ffffff" />
  <title
     id="title2">Qt SVG Document</title>
  <desc
     id="desc4">Generated with Qt</desc>
  <defs
     id="defs6" />
  <g
     transform="translate(5.25984,5.25984)"
     id="g18"
     stroke-linejoin="bevel"
     stroke-linecap="square"
     fill-rule="evenodd"
     stroke-width="1"
     stroke="#000000"
     fill="none">
    <g
       id="g10"
       font-style="normal"
       font-weight="400"
       font-size="7.8px"
       font-family="'MS Shell Dlg 2'"
       stroke="none"
       fill-opacity="1"
       fill="#ec1d24">
      <path
         id="path8"
         d="M 37.2598,16 C 37.2598,27.7415 27.7415,37.2598 16,37.2598 4.25851,37.2598 -5.25984,27.7415 -5.25984,16 -5.25984,4.25851 4.25851,-5.25984 16,-5.25984 27.7415,-5.25984 37.2598,4.25851 37.2598,16"
         fill-rule="evenodd"
         vector-effect="non-scaling-stroke" />
    </g>
    <g
       id="g14"
       font-style="normal"
       font-weight="400"
       font-size="7.8px"
       font-family="'MS Shell Dlg 2'"
       transform="translate(16,11.4646)"
       stroke="none"
       fill-opacity="0.94902"
       fill="#ffffff">
      <path
         id="path12"
         d="m 10.2793,-2.29395 c 0.3499,0.25196 0.5249,0.5669 0.5249,0.94483 V 14.6499 c 0,0.252 -0.0945,0.4794 -0.2834,0.6824 -0.189,0.2029 -0.4235,0.3044 -0.70342,0.3044 H -9.33105 c -0.27995,0 -0.51441,-0.1015 -0.70335,-0.3044 -0.189,-0.203 -0.2835,-0.4304 -0.2835,-0.6824 V -1.34912 c 0,-0.37793 0.175,-0.69287 0.52493,-0.94483 l 9.490236,-5.68994 c 0.2379554,-0.11198 0.42692,-0.16797 0.566894,-0.16797 0.111979,0 0.286947,0.05599 0.524903,0.16797 L 10.2793,-2.29395 M 9.81738,-1.34912 0.26416,-7.12305 -9.33105,-1.34912 V 14.6499 H 9.81738 V -1.34912 M 5.47119,8.37207 6.70996,11.5425 c 0.13997,0.4339 0.11198,0.8293 -0.08398,1.1863 -0.19597,0.3569 -0.51091,0.6053 -0.94483,0.7453 -0.02799,0.056 -0.06998,0.084 -0.12597,0.084 -0.05599,0 -0.11198,0 -0.16797,0 -0.34994,0.056 -0.66838,-0.014 -0.95533,-0.21 C 4.14494,13.1522 3.93148,12.8792 3.7915,12.5293 L 2.11182,8.05713 5.21924,8.37207 H 5.47119 M -0.197754,5.05469 5.47119,5.47461 C 5.75114,5.5306 5.99959,5.66707 6.21655,5.88403 6.43351,6.10099 6.514,6.38444 6.45801,6.73438 6.34603,7.28027 6.01709,7.60921 5.47119,7.72119 H 5.30322 L -0.890625,7.1123 C -1.18457,7.1123 -1.45752,6.98633 -1.70947,6.73438 L -2.96924,5.30664 v 0.48291 c 0.028,0.30794 0.06649,0.63338 0.11548,0.97632 0.04899,0.34294 0.11548,0.66488 0.19946,0.96582 0.08399,0.30094 0.19597,0.5459 0.33594,0.73486 0.13997,0.18897 0.31494,0.26945 0.5249,0.24146 0.16797,-0.25196 0.33594,-0.5529 0.50391,-0.90283 h 0.314941 L 1.94385,8.05713 C 1.6779,8.68701 1.38745,9.32389 1.07251,9.96777 0.757568,10.6117 0.393636,11.2135 -0.0192871,11.7734 -0.43221,12.3333 -0.897624,12.8022 -1.41553,13.1802 c -0.5179,0.3779 -1.11979,0.5949 -1.80566,0.6509 h -0.16797 -0.16797 v -0.084 c -0.29394,0 -0.5109,-0.014 -0.65088,-0.042 -0.11198,0 -0.22396,-0.021 -0.33594,-0.063 -0.43391,-0.028 -0.78735,-0.147 -1.0603,-0.3569 -0.27295,-0.21 -0.5039,-0.4515 -0.69287,-0.7244 -0.18896,-0.273 -0.33944,-0.5739 -0.45142,-0.9028 -0.11197,-0.329 -0.20996,-0.6404 -0.29394,-0.9344 -0.26595,-0.82581 -0.46191,-1.73214 -0.58789,-2.71896 -0.12598,-0.98682 -0.12598,-1.93514 0,-2.84497 0.12598,-0.90983 0.39892,-1.73568 0.81885,-2.47754 0.41992,-0.74186 1.02881,-1.28776 1.82666,-1.6377 0.62988,-0.307939 1.10229,-0.360429 1.41723,-0.157467 0.31494,0.202967 0.5494,0.416427 0.70337,0.640377 v 0.08399 l 2.666506,3.44336 M 0.348145,4.36182 C 0.726074,3.73193 1.146,3.26302 1.60791,2.95508 1.83187,2.8291 2.05933,2.75212 2.29028,2.72412 c 0.23096,-0.02799 0.44442,0 0.64038,0.08399 0.48991,0.12597 0.83285,0.42692 1.02881,0.90283 L 4.31641,4.69775 0.348145,4.36182 M -1.05859,-2.29395 c 0.601884,-0.20996 1.186276,-0.17146 1.75317,0.11548 0.56689,0.28695 0.95532,0.74536 1.16528,1.375247 0.22396,0.573894 0.18547,1.147787 -0.11548,1.72168 C 1.44344,1.49235 0.978027,1.89827 0.348145,2.13623 -0.225749,2.36019 -0.799642,2.3217 -1.37354,2.02075 -1.94743,1.71981 -2.34635,1.28239 -2.57031,0.708496 -2.76628,0.0786133 -2.72428,-0.523275 -2.44434,-1.09717 c 0.27995,-0.57389 0.74187,-0.97282 1.38575,-1.19678"
         fill-rule="evenodd"
         vector-effect="none" />
    </g>
    <g
       id="g16"
       font-style="normal"
       font-weight="400"
       font-size="7.8px"
       font-family="'MS Shell Dlg 2'"
       stroke="none"
       fill-opacity="1"
       fill="#ec1d24" />
  </g>
</svg>

<?xml version="1.0" encoding="UTF-8" standalone="no"?>
<svg width="11.2889mm" height="11.2889mm"
 viewBox="0 0 32 32"
 xmlns="http://www.w3.org/2000/svg" xmlns:xlink="http://www.w3.org/1999/xlink"  version="1.2" baseProfile="tiny">
<title>Qt SVG Document</title>
<desc>Generated with Qt</desc>
<defs>
</defs>
<g fill="none" stroke="black" stroke-width="1" fill-rule="evenodd" stroke-linecap="square" stroke-linejoin="bevel" >

<g fill="#ec1d24" fill-opacity="1" stroke="none" transform="matrix(1,0,0,1,0,0)"
font-family="MS Shell Dlg 2" font-size="7.8" font-weight="400" font-style="normal" 
>
<path vector-effect="non-scaling-stroke" fill-rule="evenodd" d="M37.2598,16 C37.2598,27.7415 27.7415,37.2598 16,37.2598 C4.25851,37.2598 -5.25984,27.7415 -5.25984,16 C-5.25984,4.25851 4.25851,-5.25984 16,-5.25984 C27.7415,-5.25984 37.2598,4.25851 37.2598,16 "/>
</g>

<g fill="#ffffff" fill-opacity="0.94902" stroke="none" transform="matrix(1,0,0,1,16,11.4646)"
font-family="MS Shell Dlg 2" font-size="7.8" font-weight="400" font-style="normal" 
>
<path vector-effect="none" fill-rule="evenodd" d="M10.2793,-2.29395 C10.6292,-2.04199 10.8042,-1.72705 10.8042,-1.34912 L10.8042,14.6499 C10.8042,14.9019 10.7097,15.1293 10.5208,15.3323 C10.3318,15.5352 10.0973,15.6367 9.81738,15.6367 L-9.33105,15.6367 C-9.611,15.6367 -9.84546,15.5352 -10.0344,15.3323 C-10.2234,15.1293 -10.3179,14.9019 -10.3179,14.6499 L-10.3179,-1.34912 C-10.3179,-1.72705 -10.1429,-2.04199 -9.79297,-2.29395 L-0.302734,-7.98389 C-0.0647786,-8.09587 0.124186,-8.15186 0.26416,-8.15186 C0.376139,-8.15186 0.551107,-8.09587 0.789063,-7.98389 L10.2793,-2.29395 M9.81738,-1.34912 L0.26416,-7.12305 L-9.33105,-1.34912 L-9.33105,14.6499 L9.81738,14.6499 L9.81738,-1.34912 M5.47119,8.37207 L6.70996,11.5425 C6.84993,11.9764 6.82194,12.3718 6.62598,12.7288 C6.43001,13.0857 6.11507,13.3341 5.68115,13.4741 C5.65316,13.5301 5.61117,13.5581 5.55518,13.5581 C5.49919,13.5581 5.4432,13.5581 5.38721,13.5581 C5.03727,13.6141 4.71883,13.5441 4.43188,13.3481 C4.14494,13.1522 3.93148,12.8792 3.7915,12.5293 L2.11182,8.05713 L5.21924,8.37207 L5.47119,8.37207 M-0.197754,5.05469 L5.47119,5.47461 C5.75114,5.5306 5.99959,5.66707 6.21655,5.88403 C6.43351,6.10099 6.514,6.38444 6.45801,6.73438 C6.34603,7.28027 6.01709,7.60921 5.47119,7.72119 L5.30322,7.72119 L-0.890625,7.1123 C-1.18457,7.1123 -1.45752,6.98633 -1.70947,6.73438 L-2.96924,5.30664 L-2.96924,5.78955 C-2.94124,6.09749 -2.90275,6.42293 -2.85376,6.76587 C-2.80477,7.10881 -2.73828,7.43075 -2.6543,7.73169 C-2.57031,8.03263 -2.45833,8.27759 -2.31836,8.46655 C-2.17839,8.65552 -2.00342,8.736 -1.79346,8.70801 C-1.62549,8.45605 -1.45752,8.15511 -1.28955,7.80518 L-0.974609,7.80518 L1.94385,8.05713 C1.6779,8.68701 1.38745,9.32389 1.07251,9.96777 C0.757568,10.6117 0.393636,11.2135 -0.0192871,11.7734 C-0.43221,12.3333 -0.897624,12.8022 -1.41553,13.1802 C-1.93343,13.5581 -2.53532,13.7751 -3.22119,13.8311 L-3.38916,13.8311 L-3.55713,13.8311 L-3.55713,13.7471 C-3.85107,13.7471 -4.06803,13.7331 -4.20801,13.7051 C-4.31999,13.7051 -4.43197,13.6841 -4.54395,13.6421 C-4.97786,13.6141 -5.3313,13.4951 -5.60425,13.2852 C-5.8772,13.0752 -6.10815,12.8337 -6.29712,12.5608 C-6.48608,12.2878 -6.63656,11.9869 -6.74854,11.658 C-6.86051,11.329 -6.9585,11.0176 -7.04248,10.7236 C-7.30843,9.89779 -7.50439,8.99146 -7.63037,8.00464 C-7.75635,7.01782 -7.75635,6.0695 -7.63037,5.15967 C-7.50439,4.24984 -7.23145,3.42399 -6.81152,2.68213 C-6.3916,1.94027 -5.78271,1.39437 -4.98486,1.04443 C-4.35498,0.736491 -3.88257,0.684001 -3.56763,0.886963 C-3.25269,1.08993 -3.01823,1.30339 -2.86426,1.52734 L-2.86426,1.61133 L-0.197754,5.05469 M0.348145,4.36182 C0.726074,3.73193 1.146,3.26302 1.60791,2.95508 C1.83187,2.8291 2.05933,2.75212 2.29028,2.72412 C2.52124,2.69613 2.7347,2.72412 2.93066,2.80811 C3.42057,2.93408 3.76351,3.23503 3.95947,3.71094 L4.31641,4.69775 L0.348145,4.36182 M-1.05859,-2.29395 C-0.456706,-2.50391 0.127686,-2.46541 0.69458,-2.17847 C1.26147,-1.89152 1.6499,-1.43311 1.85986,-0.803223 C2.08382,-0.229329 2.04533,0.344564 1.74438,0.918457 C1.44344,1.49235 0.978027,1.89827 0.348145,2.13623 C-0.225749,2.36019 -0.799642,2.3217 -1.37354,2.02075 C-1.94743,1.71981 -2.34635,1.28239 -2.57031,0.708496 C-2.76628,0.0786133 -2.72428,-0.523275 -2.44434,-1.09717 C-2.16439,-1.67106 -1.70247,-2.06999 -1.05859,-2.29395 "/>
</g>

<g fill="#ec1d24" fill-opacity="1" stroke="none" transform="matrix(1,0,0,1,0,0)"
font-family="MS Shell Dlg 2" font-size="7.8" font-weight="400" font-style="normal" 
>
</g>
</g>
</svg>
